svg/u2795.svg

<svg viewBox="0 0 128 128" xmlns="http://www.w3.org/2000/svg">
  <path d="M4.79,72.01c0,0,0.02,3.76,0.05,4.45c0.05,1.34,0.79,1.95,2.25,1.92c1.46-0.04,42.08,0.43,42.08,0.43 l0.66-12.75L4.79,72.01z" fill="#464C4F"/>
  <path d="M75.39,70.28l2.55,8.21c0,0,41.06,0,42.57,0.08c1.51,0.08,2.31-0.48,2.39-1.91 c0.08-1.44,0.22-7.22,0.22-7.22l-28.76-3.94L75.39,70.28z" fill="#464C4F"/>
  <path d="M47.4,114.08c0,0-0.03,5.5-0.04,6.62c-0.02,2.11,0.52,3.87,4.75,3.87s21.37-0.08,23.12-0.16 c1.75-0.08,3.14-1.03,3.22-3.02c0.08-1.99,0.53-9.57-0.27-9.49c-0.8,0.08-18.58,0.08-18.58,0.08L47.4,114.08z" fill="#464C4F"/>
  <path d="M7.87,48.59c-2.39,0.09-3.03,0.96-3.11,3.59c-0.08,2.63,0,17.3,0,18.66s0.08,3.35,1.83,3.43 c1.75,0.08,40.82,0.08,40.82,0.08s0,37.55,0,39.7c0,2.15,1.59,4.86,5.9,5.18s16.82,0.16,19.77,0.16c2.95,0,5.34-1.12,5.5-3.67 c0.16-2.55,0.16-41.38,0.16-41.38s38.98-0.23,40.9-0.24c2.71-0.01,3.43-1.51,3.51-5.18c0.08-3.67-0.16-15.07-0.16-17.06 c0-1.99-1.28-3.19-4.31-3.03c-3.03,0.16-40.34-0.16-40.34-0.16s0-40,0-41.91s-0.74-3-3.99-2.97C72.12,3.81,52.4,3.75,50.72,3.71 c-2.12-0.05-3.09,1.43-3.07,3.82c0.02,2.31-0.16,41.22-0.16,41.22S10.02,48.51,7.87,48.59z" fill="#616266"/>
  <path d="M9.7,53.14c-1.59,1.75-1.91,12.12,0.96,12.12c3.21,0,2.15-5.02,6.54-6.7s6.44-2.55,6.54-4.38 C23.89,51.22,11.46,51.2,9.7,53.14z" fill="#9A9A9A"/>
  <path d="M65.5,9.02c0.13,2.11-5.3,3.01-7.43,5.05c-2.14,2.04-3.5,5.3-5.1,5.25c-1.6-0.05-2.72-3.06-2.33-6.46 s3.26-5.44,7.53-5.73S65.4,7.42,65.5,9.02z" fill="#9A9A9A"/>
</svg>

<svg viewBox="0 0 128 128" xmlns="http://www.w3.org/2000/svg">
  <defs/>
  <path d="M4.79,72.01 C4.79,72.01 4.81,75.77 4.84,76.46 C4.89,77.8 5.63,78.41 7.09,78.38 C8.55,78.34 49.17,78.81 49.17,78.81 L49.83,66.06 L4.79,72.01 Z" fill="#464C4F"/>
  <path d="M75.39,70.28 L77.94,78.49 C77.94,78.49 119,78.49 120.51,78.57 C122.02,78.65 122.82,78.09 122.9,76.66 C122.98,75.22 123.12,69.44 123.12,69.44 L94.36,65.5 L75.39,70.28 Z" fill="#464C4F"/>
  <path d="M47.4,114.08 C47.4,114.08 47.37,119.58 47.36,120.7 C47.34,122.81 47.88,124.57 52.11,124.57 C56.34,124.57 73.48,124.49 75.23,124.41 C76.98,124.33 78.37,123.38 78.45,121.39 C78.53,119.4 78.98,111.82 78.18,111.9 C77.38,111.98 59.6,111.98 59.6,111.98 L47.4,114.08 Z" fill="#464C4F"/>
  <path d="M7.87,48.59 C5.48,48.68 4.84,49.55 4.76,52.18 C4.68,54.81 4.76,69.48 4.76,70.84 C4.76,72.2 4.84,74.19 6.59,74.27 C8.34,74.35 47.41,74.35 47.41,74.35 C47.41,74.35 47.41,111.9 47.41,114.05 C47.41,116.2 49,118.91 53.31,119.23 C57.62,119.55 70.13,119.39 73.08,119.39 C76.03,119.39 78.42,118.27 78.58,115.72 C78.74,113.17 78.74,74.34 78.74,74.34 C78.74,74.34 117.72,74.11 119.64,74.1 C122.35,74.09 123.07,72.59 123.15,68.92 C123.23,65.25 122.99,53.85 122.99,51.86 C122.99,49.87 121.71,48.67 118.68,48.83 C115.65,48.99 78.34,48.67 78.34,48.67 C78.34,48.67 78.34,8.67 78.34,6.76 C78.34,4.85 77.6,3.76 74.35,3.79 C72.12,3.81 52.4,3.75 50.72,3.71 C48.6,3.66 47.63,5.14 47.65,7.53 C47.67,9.84 47.49,48.75 47.49,48.75 C47.49,48.75 10.02,48.51 7.87,48.59 Z" fill="#616266"/>
  <path d="M9.7,53.14 C8.11,54.89 7.79,65.26 10.66,65.26 C13.87,65.26 12.81,60.24 17.2,58.56 C21.59,56.88 23.64,56.01 23.74,54.18 C23.89,51.22 11.46,51.2 9.7,53.14 Z" fill="#9A9A9A"/>
  <path d="M65.5,9.02 C65.63,11.13 60.2,12.03 58.07,14.07 C55.93,16.11 54.57,19.37 52.97,19.32 C51.37,19.27 50.25,16.26 50.64,12.86 C51.03,9.46 53.9,7.42 58.17,7.13 C62.44,6.84 65.4,7.42 65.5,9.02 Z" fill="#9A9A9A"/>
</svg>
